apps/static/images/header-blobs.svg

<svg width="894" height="680" viewBox="0 0 894 680" fill="none" xmlns="http://www.w3.org/2000/svg">
<path fill-rule="evenodd" clip-rule="evenodd" d="M157.562 54.4428C205.491 8.59347 276.305 5.54819 341.011 -9.06121C398.3 -21.9958 457.906 -48.2612 512.1 -25.6043C564.933 -3.51668 584.346 58.1706 615.987 105.897C645.597 150.561 673.982 192.874 690.696 243.785C714.747 317.041 768.521 396.332 733.962 465.24C699.75 533.457 607.828 552.635 531.899 560.418C465.669 567.206 404.815 534.46 345.052 505.101C294.146 480.092 254.904 442.653 213.429 403.965C160.883 354.949 82.2232 320.297 70.883 249.349C59.3772 177.366 104.893 104.827 157.562 54.4428Z" fill="#DFE9FD"/>
<path fill-rule="evenodd" clip-rule="evenodd" d="M714.508 -136.477C773.794 -143.936 837.823 -162.958 889.216 -131.399C941.98 -98.9973 954.343 -28.8348 982.137 27.8685C1016.35 97.6774 1078.29 160.153 1070.3 238.03C1061.82 320.605 1014.11 408.913 939.853 439.889C866.568 470.458 793.243 392.969 714.508 386.439C645.921 380.751 576.697 433.742 513.901 404.563C447.024 373.488 406.981 301.529 379.811 230.92C351.188 156.536 317.288 66.1552 357.336 -2.31789C397.65 -71.2471 495.021 -63.5528 568.091 -90.999C617.196 -109.443 662.664 -129.955 714.508 -136.477Z" fill="#44009B"/>
</svg>

<svg width="894" height="680" fill="none" xmlns="http://www.w3.org/2000/svg"><path fill-rule="evenodd" clip-rule="evenodd" d="M157.562 54.443C205.491 8.593 276.305 5.548 341.011-9.061 398.3-21.996 457.906-48.261 512.1-25.604c52.833 22.087 72.246 83.775 103.887 131.501 29.61 44.664 57.995 86.977 74.709 137.888 24.051 73.256 77.825 152.547 43.266 221.455-34.212 68.217-126.134 87.395-202.063 95.178-66.23 6.788-127.084-25.958-186.847-55.317-50.906-25.009-90.148-62.448-131.623-101.136-52.546-49.016-131.206-83.668-142.546-154.616-11.506-71.983 34.01-144.522 86.679-194.906z" fill="#DFE9FD"/><path fill-rule="evenodd" clip-rule="evenodd" d="M714.508-136.477c59.286-7.459 123.315-26.481 174.708 5.078 52.764 32.402 65.127 102.564 92.921 159.268 34.213 69.808 96.153 132.284 88.163 210.161-8.48 82.575-56.19 170.883-130.447 201.859-73.285 30.569-146.61-46.92-225.345-53.45-68.587-5.688-137.811 47.303-200.607 18.124-66.877-31.075-106.92-103.034-134.09-173.643-28.623-74.384-62.523-164.765-22.475-233.238 40.314-68.93 137.685-61.235 210.755-88.681 49.105-18.444 94.573-38.956 146.417-45.478z" fill="#44009B"/></svg>
